hyprcursor_themes/black/hyprcursors/beam/beam.svg

<?xml version="1.0" encoding="UTF-8" standalone="no"?>
<!-- Created with Inkscape (http://www.inkscape.org/) -->

<svg
   version="1.1"
   id="svg1"
   width="75"
   height="75"
   viewBox="0 0 75 75"
   xml:space="preserve"
   xmlns="http://www.w3.org/2000/svg"
   xmlns:svg="http://www.w3.org/2000/svg"><defs
     id="defs1" /><g
     id="layer6"
     style="display:inline"
     transform="matrix(1.0000029,0,0,1,21.4355,0)"><path
       id="path1"
       style="color:#000000;display:inline;fill:#ffffff;fill-opacity:1;stroke:none;stroke-opacity:1;-inkscape-stroke:none;paint-order:stroke markers fill"
       d="M 22.992188,15.148438 32.128906,6.0117188 V 0 L 18.742188,13.386719 H 13.386719 L 0,0 V 6.0097656 L 9.1367188,15.146484 V 59.853516 L 0,68.990234 V 75 L 13.386719,61.613281 h 5.355469 L 32.128906,75 v -6.011719 l -9.136718,-9.136719 z" /><path
       id="Selection #1"
       style="display:inline;fill:#000000;fill-opacity:1;stroke:none;stroke-opacity:1"
       d="M 18.742188,13.386719 32.128906,0 H 24.988281 L 16.064453,8.9335938 7.1308594,0 H 0 L 13.386719,13.386719 V 61.613281 L 0,75 H 7.1308594 L 16.064453,66.066406 24.988281,75 h 7.140625 L 18.742188,61.613281 Z" /></g></svg>

<svg width="75" height="75" version="1.1" viewBox="0 0 75 75" xmlns="http://www.w3.org/2000/svg"><g transform="matrix(1 0 0 1 21.44 0)"><path d="m22.99 15.15 9.137-9.137v-6.012l-13.39 13.39h-5.355l-13.39-13.39v6.01l9.137 9.137v44.71l-9.137 9.137v6.01l13.39-13.39h5.355l13.39 13.39v-6.012l-9.137-9.137z" color="#000000" fill="#fff" style="-inkscape-stroke:none;paint-order:stroke markers fill"/><path d="m18.74 13.39 13.39-13.39h-7.141l-8.924 8.934-8.934-8.934h-7.131l13.39 13.39v48.23l-13.39 13.39h7.131l8.934-8.934 8.924 8.934h7.141l-13.39-13.39z"/></g></svg>
